apps/frontend/static_src/images/search.svg

<svg fill="none" height="25" viewBox="0 0 24 25" width="24" xmlns="http://www.w3.org/2000/svg"><path d="m22.6855 20.7754-4.4921-4.4922c-.2246-.1797-.4942-.3144-.7637-.3144h-.7188c1.2129-1.5723 1.9766-3.5489 1.9766-5.75 0-5.12114-4.2227-9.3438-9.34375-9.3438-5.16602 0-9.34375 4.22266-9.34375 9.3438 0 5.166 4.17773 9.3437 9.34375 9.3437 2.15625 0 4.13285-.7187 5.75005-1.9766v.7637c0 .2695.0898.5391.3144.7637l4.4473 4.4472c.4492.4493 1.123.4493 1.5273 0l1.2578-1.2578c.4492-.4043.4492-1.0781.0449-1.5273zm-13.34175-4.8066c-3.18945 0-5.75-2.5606-5.75-5.75 0-3.14458 2.56055-5.75005 5.75-5.75005 3.14455 0 5.75005 2.60547 5.75005 5.75005 0 3.1894-2.6055 5.75-5.75005 5.75z" fill="#262626"/></svg>

<svg width="24" height="25" viewBox="0 0 24 25" fill="none" xmlns="http://www.w3.org/2000/svg">
<path d="M22.6855 20.7754L18.1934 16.2832C17.9688 16.1035 17.6992 15.9688 17.4297 15.9688H16.7109C17.9238 14.3965 18.6875 12.4199 18.6875 10.2188C18.6875 5.09766 14.4648 0.875 9.34375 0.875C4.17773 0.875 0 5.09766 0 10.2188C0 15.3848 4.17773 19.5625 9.34375 19.5625C11.5 19.5625 13.4766 18.8438 15.0938 17.5859V18.3496C15.0938 18.6191 15.1836 18.8887 15.4082 19.1133L19.8555 23.5605C20.3047 24.0098 20.9785 24.0098 21.3828 23.5605L22.6406 22.3027C23.0898 21.8984 23.0898 21.2246 22.6855 20.7754ZM9.34375 15.9688C6.1543 15.9688 3.59375 13.4082 3.59375 10.2188C3.59375 7.07422 6.1543 4.46875 9.34375 4.46875C12.4883 4.46875 15.0938 7.07422 15.0938 10.2188C15.0938 13.4082 12.4883 15.9688 9.34375 15.9688Z" fill="#262626"/>
</svg>
